src/icons/logos/shopify.svg

<svg width="663" height="220" viewBox="0 0 663 220" fill="none" xmlns="http://www.w3.org/2000/svg">
<g clip-path="url(#clip0_640_501)">
<path d="M229.369 120.655C223.724 117.525 220.753 114.992 220.753 111.416C220.753 106.796 224.763 103.965 231.151 103.965C238.579 103.965 245.115 107.094 245.115 107.094L250.315 91.149C250.315 91.149 245.561 87.4235 231.448 87.4235C211.839 87.4235 198.172 98.749 198.172 114.545C198.172 123.486 204.56 130.341 213.028 135.259C219.861 139.133 222.238 141.965 222.238 145.988C222.238 150.31 218.821 153.737 212.433 153.737C202.926 153.737 194.013 148.82 194.013 148.82L188.516 164.765C188.516 164.765 196.835 170.278 210.651 170.278C230.854 170.278 245.264 160.294 245.264 142.412C245.561 132.576 238.133 125.722 229.369 120.655Z" fill="currentColor"/>
<path d="M309.885 87.1255C299.932 87.1255 292.207 91.8941 286.116 99.0471L285.819 98.898L294.435 53.5961H271.855L250.018 168.788H272.449L279.877 129.447C282.848 114.545 290.424 105.455 297.555 105.455C302.606 105.455 304.537 108.882 304.537 113.8C304.537 116.929 304.24 120.655 303.497 123.784L295.03 168.937H317.461L326.226 122.443C327.266 117.525 327.86 111.714 327.86 107.69C328.157 94.7255 321.621 87.1255 309.885 87.1255Z" fill="currentColor"/>
<path d="M378.963 87.1255C351.926 87.1255 333.951 111.565 333.951 138.835C333.951 156.271 344.647 170.427 364.851 170.427C391.442 170.427 409.268 146.584 409.268 118.718C409.417 102.475 400.058 87.1255 378.963 87.1255ZM367.97 152.992C360.245 152.992 357.126 146.435 357.126 138.239C357.126 125.274 363.811 104.263 375.992 104.263C384.014 104.263 386.54 111.118 386.54 117.824C386.54 131.831 379.855 152.992 367.97 152.992Z" fill="currentColor"/>
<path d="M466.908 87.1255C451.755 87.1255 443.139 100.537 443.139 100.537H442.842L444.179 88.4667H424.273C423.233 96.6627 421.45 109.031 419.668 118.42L404.069 200.678H426.501L432.74 167.298H433.186C433.186 167.298 437.791 170.278 446.407 170.278C472.85 170.278 490.083 143.157 490.083 115.737C490.083 100.686 483.398 87.1255 466.908 87.1255ZM445.516 153.439C439.722 153.439 436.306 150.161 436.306 150.161L440.02 129.149C442.694 115.141 449.973 105.753 457.698 105.753C464.531 105.753 466.611 112.161 466.611 118.122C466.611 132.576 457.995 153.439 445.516 153.439Z" fill="currentColor"/>
<path d="M522.17 54.7883C515.04 54.7883 509.246 60.451 509.246 67.902C509.246 74.6079 513.406 79.2275 519.793 79.2275H520.091C527.073 79.2275 533.163 74.4588 533.312 66.1138C533.461 59.4079 529.004 54.7883 522.17 54.7883Z" fill="currentColor"/>
<path d="M490.676 168.788H513.257L528.558 88.9138H505.829L490.676 168.788Z" fill="currentColor"/>
<path d="M585.603 88.7647H570.005L570.748 85.0392C572.085 77.2902 576.541 70.4353 584.118 70.4353C588.129 70.4353 591.248 71.6275 591.248 71.6275L595.705 54.0432C595.705 54.0432 591.843 52.1059 583.524 52.1059C575.502 52.1059 567.628 54.3412 561.537 59.5569C553.813 66.1137 550.247 75.502 548.465 85.0392L547.87 88.7647H537.472L534.203 105.753H544.602L532.718 168.788H555.15L567.034 105.753H582.484L585.603 88.7647Z" fill="currentColor"/>
<path d="M639.677 88.9138C639.677 88.9138 625.564 124.38 619.325 143.753H619.028C618.582 137.494 613.531 88.9138 613.531 88.9138H589.911L603.43 162.231C603.727 163.871 603.578 164.914 602.984 165.957C600.31 171.024 596.002 175.941 590.802 179.518C586.643 182.647 581.889 184.584 578.175 185.926L584.415 205C589.02 203.957 598.379 200.231 606.401 192.78C616.651 183.094 626.158 168.341 635.815 148.075L663.297 88.9138H639.677Z" fill="currentColor"/>
<path d="M111.119 37.0549C111.119 37.0549 109.039 37.651 105.623 38.6942C105.028 36.7569 104.137 34.5216 102.949 32.1373C99.0862 24.6863 93.2925 20.6628 86.459 20.6628C86.0134 20.6628 85.5677 20.6628 84.9735 20.8118C84.8249 20.5138 84.5278 20.3647 84.3793 20.0667C81.4082 16.7883 77.5457 15.2981 72.9405 15.4471C64.0272 15.7451 55.114 22.153 47.9833 33.6275C42.9325 41.6745 39.07 51.8079 38.0302 59.7059C27.7799 62.8353 20.6493 65.0706 20.5007 65.2197C15.3013 66.8589 15.1527 67.0079 14.5585 71.9255C14.1128 75.651 0.445801 180.561 0.445801 180.561L112.753 200.082V36.9059C111.862 36.9059 111.416 37.0549 111.119 37.0549ZM85.122 45.102C79.1798 46.8902 72.6434 48.9765 66.2556 50.9138C68.0382 43.9098 71.6035 36.9059 75.7631 32.2863C77.3972 30.6471 79.6255 28.7098 82.1509 27.5177C84.6764 32.8824 85.2706 40.1844 85.122 45.102ZM72.9405 21.5569C75.0203 21.5569 76.803 22.004 78.2885 22.8981C75.9116 24.0902 73.5348 26.0275 71.3064 28.2628C65.6614 34.3726 61.3533 43.9098 59.5706 53C54.2226 54.6393 48.8747 56.2785 43.9724 57.7687C47.2406 43.4628 59.2735 21.8549 72.9405 21.5569ZM55.7082 103.518C56.3024 113.055 81.4082 115.141 82.8937 137.643C83.9336 155.377 73.5348 167.447 58.5307 168.341C40.407 169.533 30.4539 158.804 30.4539 158.804L34.3163 142.412C34.3163 142.412 44.2695 150.012 52.2914 149.416C57.4908 149.118 59.4221 144.796 59.2735 141.816C58.5307 129.298 38.0302 130.043 36.6932 109.478C35.5047 92.1922 46.7949 74.7569 71.7521 73.1177C81.4082 72.5216 86.3105 74.9059 86.3105 74.9059L80.6654 96.3647C80.6654 96.3647 74.2775 93.3844 66.7012 93.9804C55.7082 94.7255 55.5596 101.729 55.7082 103.518ZM91.0642 43.3138C91.0642 38.8432 90.47 32.4353 88.3902 27.0706C95.2238 28.4118 98.492 36.0118 99.9775 40.6314C97.3035 41.3765 94.3324 42.2706 91.0642 43.3138Z" fill="currentColor"/>
<path d="M116.17 199.784L162.816 188.161C162.816 188.161 142.761 52.1059 142.613 51.2118C142.464 50.3177 141.721 49.7216 140.979 49.7216C140.236 49.7216 127.163 49.4236 127.163 49.4236C127.163 49.4236 119.141 41.6745 116.17 38.6942V199.784Z" fill="currentColor"/>
</g>
<defs>
<clipPath id="clip0_640_501">
<rect width="663" height="190" fill="white" transform="translate(0 15)"/>
</clipPath>
</defs>
</svg>

<svg xmlns="http://www.w3.org/2000/svg" width="663" height="220" fill="none">
    <g fill="currentColor" clip-path="url(#a)">
        <path
            d="M229.369 120.655c-5.645-3.13-8.616-5.663-8.616-9.239 0-4.62 4.01-7.451 10.398-7.451 7.428 0 13.964 3.129 13.964 3.129l5.2-15.945s-4.754-3.725-18.867-3.725c-19.609 0-33.276 11.325-33.276 27.121 0 8.941 6.388 15.796 14.856 20.714 6.833 3.874 9.21 6.706 9.21 10.729 0 4.322-3.417 7.749-9.805 7.749-9.507 0-18.42-4.917-18.42-4.917l-5.497 15.945s8.319 5.513 22.135 5.513c20.203 0 34.613-9.984 34.613-27.866.297-9.836-7.131-16.69-15.895-21.757ZM309.885 87.126c-9.953 0-17.678 4.768-23.769 11.921l-.297-.149 8.616-45.302h-22.58l-21.837 115.192h22.431l7.428-39.341c2.971-14.902 10.547-23.992 17.678-23.992 5.051 0 6.982 3.427 6.982 8.345 0 3.129-.297 6.855-1.04 9.984l-8.467 45.153h22.431l8.765-46.494c1.04-4.918 1.634-10.729 1.634-14.753.297-12.965-6.239-20.564-17.975-20.564ZM378.963 87.126c-27.037 0-45.012 24.439-45.012 51.709 0 17.436 10.696 31.592 30.9 31.592 26.591 0 44.417-23.843 44.417-51.709.149-16.243-9.21-31.593-30.305-31.593Zm-10.993 65.866c-7.725 0-10.844-6.557-10.844-14.753 0-12.965 6.685-33.976 18.866-33.976 8.022 0 10.548 6.855 10.548 13.561 0 14.007-6.685 35.168-18.57 35.168ZM466.908 87.126c-15.153 0-23.769 13.411-23.769 13.411h-.297l1.337-12.07h-19.906c-1.04 8.196-2.823 20.564-4.605 29.953l-15.599 82.258h22.432l6.239-33.38h.446s4.605 2.98 13.221 2.98c26.443 0 43.676-27.121 43.676-54.541 0-15.051-6.685-28.611-23.175-28.611Zm-21.392 66.313c-5.794 0-9.21-3.278-9.21-3.278l3.714-21.012c2.674-14.008 9.953-23.396 17.678-23.396 6.833 0 8.913 6.408 8.913 12.369 0 14.454-8.616 35.317-21.095 35.317ZM522.17 54.788c-7.13 0-12.924 5.663-12.924 13.114 0 6.706 4.16 11.326 10.547 11.326h.298c6.982 0 13.072-4.77 13.221-13.114.149-6.706-4.308-11.326-11.142-11.326ZM490.676 168.788h22.581l15.301-79.874h-22.729l-15.153 79.874ZM585.603 88.765h-15.598l.743-3.726c1.337-7.749 5.793-14.604 13.37-14.604 4.011 0 7.13 1.192 7.13 1.192l4.457-17.584s-3.862-1.937-12.181-1.937c-8.022 0-15.896 2.235-21.987 7.45-7.724 6.558-11.29 15.946-13.072 25.483l-.595 3.726h-10.398l-3.269 16.988h10.399l-11.884 63.035h22.432l11.884-63.035h15.45l3.119-16.988ZM639.677 88.914s-14.113 35.466-20.352 54.839h-.297c-.446-6.259-5.497-54.84-5.497-54.84h-23.62l13.519 73.318c.297 1.64.148 2.683-.446 3.726-2.674 5.067-6.982 9.984-12.182 13.561-4.159 3.129-8.913 5.066-12.627 6.408l6.24 19.074c4.605-1.043 13.964-4.769 21.986-12.22 10.25-9.686 19.757-24.439 29.414-44.705l27.482-59.161h-23.62ZM111.119 37.055s-2.08.596-5.496 1.64c-.595-1.938-1.486-4.173-2.674-6.558-3.863-7.45-9.656-11.474-16.49-11.474-.446 0-.891 0-1.486.149-.148-.298-.445-.447-.594-.745-2.97-3.279-6.833-4.769-11.439-4.62-8.913.298-17.826 6.706-24.957 18.18-5.05 8.047-8.913 18.18-9.953 26.079-10.25 3.13-17.38 5.365-17.53 5.514-5.199 1.639-5.347 1.788-5.941 6.706C14.113 75.65.446 180.56.446 180.56l112.307 19.521V36.906c-.891 0-1.337.149-1.634.149Zm-25.997 8.047c-5.942 1.788-12.479 3.875-18.866 5.812 1.782-7.004 5.347-14.008 9.507-18.628 1.634-1.639 3.862-3.576 6.388-4.768 2.525 5.364 3.12 12.666 2.971 17.584ZM72.941 21.557c2.08 0 3.862.447 5.347 1.341-2.376 1.192-4.753 3.13-6.982 5.365C65.661 34.373 61.353 43.91 59.571 53a7218.803 7218.803 0 0 1-15.599 4.769c3.269-14.306 15.301-35.914 28.968-36.212Zm-17.233 81.961c.594 9.537 25.7 11.623 27.186 34.125 1.04 17.734-9.36 29.804-24.363 30.698-18.124 1.192-28.077-9.537-28.077-9.537l3.862-16.392s9.953 7.6 17.975 7.004c5.2-.298 7.131-4.62 6.983-7.6-.743-12.518-21.244-11.773-22.58-32.338-1.19-17.286 10.1-34.721 35.058-36.36 9.656-.596 14.559 1.788 14.559 1.788l-5.646 21.459s-6.388-2.98-13.964-2.385c-10.993.745-11.141 7.749-10.993 9.538Zm35.356-60.204c0-4.47-.594-10.879-2.674-16.243 6.834 1.34 10.102 8.94 11.588 13.56-2.674.745-5.646 1.64-8.914 2.683ZM116.17 199.784l46.646-11.623s-20.055-136.055-20.203-136.95c-.149-.893-.892-1.49-1.634-1.49-.743 0-13.816-.297-13.816-.297s-8.022-7.75-10.993-10.73v161.09Z" />
    </g>
    <defs>
        <clipPath id="a">
            <path fill="#fff" d="M0 15h663v190H0z" />
        </clipPath>
    </defs>
</svg>
